src/assets/img/icons/duotone-icons/Communication/Spam.svg

<?xml version="1.0" encoding="UTF-8"?>
<svg width="24px" height="24px" viewBox="0 0 24 24" version="1.1" xmlns="http://www.w3.org/2000/svg" xmlns:xlink="http://www.w3.org/1999/xlink">
    <!-- Generator: Sketch 52.2 (67145) - http://www.bohemiancoding.com/sketch -->
    <title>Stockholm-icons / Communication / Spam</title>
    <desc>Created with Sketch.</desc>
    <g id="Stockholm-icons-/-Communication-/-Spam" stroke="none" stroke-width="1" fill="none" fill-rule="evenodd">
        <rect id="bound" x="0" y="0" width="24" height="24"></rect>
        <path d="M4.5,3 L19.5,3 C20.3284271,3 21,3.67157288 21,4.5 L21,19.5 C21,20.3284271 20.3284271,21 19.5,21 L4.5,21 C3.67157288,21 3,20.3284271 3,19.5 L3,4.5 C3,3.67157288 3.67157288,3 4.5,3 Z M8,5 C7.44771525,5 7,5.44771525 7,6 C7,6.55228475 7.44771525,7 8,7 L16,7 C16.5522847,7 17,6.55228475 17,6 C17,5.44771525 16.5522847,5 16,5 L8,5 Z M10.5857864,14 L9.17157288,15.4142136 C8.78104858,15.8047379 8.78104858,16.4379028 9.17157288,16.8284271 C9.56209717,17.2189514 10.1952621,17.2189514 10.5857864,16.8284271 L12,15.4142136 L13.4142136,16.8284271 C13.8047379,17.2189514 14.4379028,17.2189514 14.8284271,16.8284271 C15.2189514,16.4379028 15.2189514,15.8047379 14.8284271,15.4142136 L13.4142136,14 L14.8284271,12.5857864 C15.2189514,12.1952621 15.2189514,11.5620972 14.8284271,11.1715729 C14.4379028,10.7810486 13.8047379,10.7810486 13.4142136,11.1715729 L12,12.5857864 L10.5857864,11.1715729 C10.1952621,10.7810486 9.56209717,10.7810486 9.17157288,11.1715729 C8.78104858,11.5620972 8.78104858,12.1952621 9.17157288,12.5857864 L10.5857864,14 Z" id="Combined-Shape" fill="#335EEA"></path>
    </g>
</svg>

<svg width="24" height="24" viewBox="0 0 24 24" xmlns="http://www.w3.org/2000/svg"><g fill="none" fill-rule="evenodd"><path d="M0 0h24v24H0z"/><path d="M4.5 3h15A1.5 1.5 0 0121 4.5v15a1.5 1.5 0 01-1.5 1.5h-15A1.5 1.5 0 013 19.5v-15A1.5 1.5 0 014.5 3zM8 5a1 1 0 100 2h8a1 1 0 000-2H8zm2.586 9l-1.414 1.414a1 1 0 101.414 1.414L12 15.414l1.414 1.414a1 1 0 101.414-1.414L13.414 14l1.414-1.414a1 1 0 10-1.414-1.414L12 12.586l-1.414-1.414a1 1 0 10-1.414 1.414L10.586 14z" fill="#335EEA"/></g></svg>
